X:4
T:The Frozen Tree
R:highland
C:Fabien Guiloineau
M:4/4
K:A
EF|:~A2AB ~c2ce|dcBA AAAF|~E2EF AF2F|AFEF d2EF|~A2AB ~c2ce|dcBA AAAF|~E2EF AF2F|1 AFEF ~A2EF:|2 AFEF ~A2FA| \
|:ce~f2 fafe|cA~A2 ABc2|cBAB cBAF|AFEF d2FA|ce~f2 fafe|cA~A2 ABc2|cBAB cBAF|1 AFEF ~A2FA:|2 AFEF ~A2EF| \
